X:1
T:Blessèd Homeland
T:Blessèd Homeland
T:Hubert Platt Main
T:Frances Jane (Fanny) Crosby, 1877
T:Public Domain Courtesy of the Cyber Hymnal™
C:Hubert Platt Main
Z:Public Domain
Z:Courtesy of the Cyber Hymnal™
%%score ( 1 2 ) ( 3 4 )
L:1/8
Q:1/4=105
M:3/4
K:F
V:1 treble 
V:2 treble 
V:3 bass 
V:4 bass 
V:1
 C[CA] | [DG]3 [CF] [FA][Fc] | [Fd]2 [Fc]2 [EA]>[EG] | F3 F [FG][FA] | [EG]4 C[CA] | %5
w: 1.~Glid- ing|o’er life’s fit- ful|wa- ters, Heav- y|surg- es some- times|roll; And we|
w: 2.~Oft we|catch a faint re-|flect- ion, Of its|bright and ver- nal|hills; And, though|
w: 3.~To our|Fa- ther, and our|Sav- ior, To the|Spir- it, Three in|One, We shall|
w: 4.~’Tis the|wear- y pil- grim’s|home- land, Where each|throb- bing care shall|cease, And our|
 [DG]3 [CF] [FA][Fc] | [Fd]2 [Fc]2 [Fd]>[Fc] | [Fc]2 F2 [EG]>F | F4 ||"^Refrain" F>[_EF] | %10
w: sigh for yon- der|ha- ven, For the|home- land of the|soul.||
w: dis- tant, how we|hail it! How each|heart with rap- ture|thrills!|Bless- èd|
w: sing glad songs of|tri- umph When our|har- vest work is|done.||
w: long- ings and our|yearn- ings, Like a|wave, be hushed to|peace.||
 [Dd]2 [DB]2 [DB]>[Fd] | [Fc]4 [FA]>[EG] | F3 F [FA]>[FG] | [EG]4 [FA]>[FA] | %14
w: ||||
w: home- land, ev- er|fair! Sin can|nev- er en- ter|there; But the|
w: ||||
w: ||||
 [Fc]3 [CA] [CG]>[CF] | [DF]2 !fermata![FB]2 [Fc]>[Fd] | [Fc]2 [CF]2 [EG]>F | F4 |] %18
w: ||||
w: soul, to life a-|wak- ing, Ev- er-|last- ing bloom shall|wear.|
w: ||||
w: ||||
V:2
 C x | x6 | x6 | F3 F3/2 x3/2 | x4 C x | x6 | x6 | x2 F2 x2 | F4 || F3/2 x/ | x6 | x6 | %12
 F3 F3/2 x3/2 | x6 | x6 | x6 | x6 | F4 |] %18
V:3
 [F,A,][F,C] | [F,B,]3 [F,A,] [F,C][F,A,] | [F,B,]2 [F,A,]2 [C,C]>[C,B,] | %3
 [D,A,]3 [D,A,] [G,,=B,][G,,B,] | [C,C]4 [F,A,][F,C] | [F,B,]3 [F,A,] [F,C][F,A,] | %6
 [F,B,]2 [F,A,]2 B,>[A,C] | [A,C]2 [A,,C]2 [C,B,]>[F,,A,] | [F,,A,]4 || [F,A,]>[F,A,] | %10
 [B,,B,]2 [B,,F,]2 [B,,F,]>[B,,B,] | [F,A,]4 [F,C]>[C,B,] | [D,A,]3 [D,A,] [G,,=B,]>[G,,B,] | %13
 [C,C]4 F,>[F,G,] | [F,A,]3 [F,,F,] [G,,E,]>[A,,F,] | [B,,F,]2 !fermata![B,,D]2 [A,,C]>[B,,B,] | %16
 [C,A,]2 [C,A,]2 [C,B,]>[F,,F,A,] | [F,,F,A,]4 |] %18
V:4
 x2 | x6 | x6 | x6 | x6 | x6 | x4 B,3/2 x/ | x6 | x4 || x2 | x6 | x6 | x6 | x6 | x6 | x6 | x6 | %17
 x4 |] %18

